accounts/administrators.svg

<svg xmlns="http://www.w3.org/2000/svg" viewBox="0 0 16 16"><defs><style>.cls-1{fill:#231f20}</style></defs><title>administrators</title><path class="cls-1" d="M8 0L.026.8v2.986a13.372 13.372 0 0 0 7.45 12.036l.524.26.523-.261a13.373 13.373 0 0 0 7.451-12.035V.8zm0 14.4A11.949 11.949 0 0 1 3.952 11 5.341 5.341 0 0 1 6.54 9.322a2.809 2.809 0 0 0 1.648.578 2.687 2.687 0 0 0 1.189-.29 7.25 7.25 0 0 1 2.469 1.667A11.968 11.968 0 0 1 8 14.405zm.188-6c-.888 0-1.734-1.1-1.734-2.269a1.882 1.882 0 0 1 1.733-2 1.882 1.882 0 0 1 1.733 2C9.921 7.3 9.078 8.4 8.188 8.4zm6.286-4.613a11.927 11.927 0 0 1-1.752 6.25 9.2 9.2 0 0 0-2.095-1.517 4.07 4.07 0 0 0 .794-2.389 3.377 3.377 0 0 0-3.233-3.5 3.377 3.377 0 0 0-3.233 3.5A4.081 4.081 0 0 0 5.472 8.1 6.857 6.857 0 0 0 3.1 9.73a11.93 11.93 0 0 1-1.574-5.944V2.155L8 1.51l6.474.645z" id="Layer_1" data-name="Layer 1"/></svg>

<svg xmlns="http://www.w3.org/2000/svg" viewBox="0 0 16 16"><defs><style>.cls-1{fill:#231f20;}</style></defs><title>administrators</title><g id="Layer_1" data-name="Layer 1"><path class="cls-1" d="M8,0,.026.8V3.786a13.372,13.372,0,0,0,7.45,12.036L8,16.082l.523-.261h0A13.373,13.373,0,0,0,15.974,3.786V.8Zm0,14.4a11.949,11.949,0,0,1-4.048-3.4A5.341,5.341,0,0,1,6.54,9.322,2.809,2.809,0,0,0,8.188,9.9a2.687,2.687,0,0,0,1.189-.29,7.25,7.25,0,0,1,2.469,1.667A11.968,11.968,0,0,1,8,14.405ZM8.188,8.4C7.3,8.4,6.454,7.3,6.454,6.131a1.882,1.882,0,0,1,1.733-2,1.882,1.882,0,0,1,1.733,2C9.921,7.3,9.078,8.4,8.188,8.4Zm6.286-4.613a11.927,11.927,0,0,1-1.752,6.25A9.2,9.2,0,0,0,10.627,8.52a4.07,4.07,0,0,0,.794-2.389,3.377,3.377,0,0,0-3.233-3.5,3.377,3.377,0,0,0-3.233,3.5A4.081,4.081,0,0,0,5.472,8.1,6.857,6.857,0,0,0,3.1,9.73,11.93,11.93,0,0,1,1.526,3.786V2.155L8,1.51l6.474.645Z"/></g></svg>
